X: 21669
T: Kilmovee, The
R: jig
M: 6/8
K: Gmajor
|:G2G B2B|GAB AGE|DEG Bdg|e2e dBA|
G2G B2B|ded BGE|DEG Bdg|1 edB G2D:|2 edB GBd||
|:g2g dBG|AGE GED|GBd g2f|eag fed|
B2B dBA|GAB AGE|DEG Bdg|1 edB GBd:|2 edB G2D||

